src/resources/theme/white/ui-dark-plain-monochrom-state-warning.svg

<?xml version="1.0" encoding="UTF-8" standalone="no"?>
<svg
   width="512"
   height="512"
   viewBox="0 0 32 32"
   fill="none"
   version="1.1"
   id="svg13"
   sodipodi:docname="ui-dark-plain-monochrom-state-warning.svg"
   inkscape:version="1.1.2 (0a00cf5339, 2022-02-04)"
   xmlns:inkscape="http://www.inkscape.org/namespaces/inkscape"
   xmlns:sodipodi="http://sodipodi.sourceforge.net/DTD/sodipodi-0.dtd"
   xmlns="http://www.w3.org/2000/svg"
   xmlns:svg="http://www.w3.org/2000/svg">
  <sodipodi:namedview
     id="namedview15"
     pagecolor="#ffffff"
     bordercolor="#666666"
     borderopacity="1.0"
     inkscape:pageshadow="2"
     inkscape:pageopacity="0.0"
     inkscape:pagecheckerboard="true"
     showgrid="false"
     inkscape:zoom="1.4277344"
     inkscape:cx="251.09713"
     inkscape:cy="256"
     inkscape:window-width="1920"
     inkscape:window-height="1029"
     inkscape:window-x="1920"
     inkscape:window-y="25"
     inkscape:window-maximized="1"
     inkscape:current-layer="svg13" />
  <path
     fill-rule="evenodd"
     clip-rule="evenodd"
     d="m 18,15 c 4.6939,0 8.5,3.8051 8.5,8.4995 0,4.6939 -3.8061,8.499 -8.5,8.499 -4.6939,0 -8.5,-3.8051 -8.5,-8.499 C 9.5,18.8051 13.3061,15 18,15 Z m 0,11.5874 c -0.6798,0 -1.1597,0.4946 -1.1597,1.2062 C 16.8251,28.4899 17.3036,29 18,29 18.7113,29 19.176,28.4899 19.176,27.7936 19.1597,27.082 18.7113,26.5874 18,26.5874 Z M 19.0046,18 h -2.0092 c -0.1109,0 -0.2168,0.0451 -0.2936,0.1249 -0.0766,0.0799 -0.1179,0.1877 -0.1136,0.2983 l 0.2781,7.206 c 0.0087,0.2186 0.1885,0.3916 0.4072,0.3916 h 1.453 c 0.2189,0 0.3987,-0.173 0.4071,-0.3916 l 0.2782,-7.206 C 19.4161,18.3126 19.3751,18.2048 19.2982,18.1249 19.2214,18.0451 19.1157,18 19.0046,18 Z"
     fill="#ffffff"
     id="path4" />
  <defs
     id="defs11">
    <clipPath
       id="clip0">
      <rect
         width="32"
         height="32"
         fill="white"
         id="rect8" />
    </clipPath>
  </defs>
</svg>

<svg width="512" height="512" viewBox="0 0 32 32" fill="none" xmlns="http://www.w3.org/2000/svg">
<g clip-path="url(#clip0)">
<path fill-rule="evenodd" clip-rule="evenodd" d="M29.4355 12.415C29.2175 12.415 29.0075 12.446 28.8055 12.498C28.5515 9.994 26.4905 8.042 23.9855 8.042C23.9595 8.042 23.9355 8.044 23.9115 8.044C23.8365 5.567 21.8605 3.582 19.4295 3.582C19.2475 3.582 19.0685 3.595 18.8915 3.616C18.4515 1.548 16.6585 0 14.5125 0C12.7495 0 11.2265 1.044 10.4935 2.563C10.0755 2.222 9.54851 2.018 8.97351 2.018C7.62151 2.018 6.52551 3.144 6.52551 4.532C6.52551 5.073 6.69351 5.573 6.97651 5.983C6.01451 6.601 5.27851 7.556 4.92551 8.687C4.78051 8.673 4.63351 8.665 4.48451 8.665C2.00751 8.665 -0.000488281 10.727 -0.000488281 13.27C-0.000488281 15.814 2.00751 18 4.48451 18H9.07251C10.9245 15.006 14.2275 13 17.9995 13C21.7715 13 25.0755 15.006 26.9275 18H29.4355C30.8515 18 31.9995 16.503 31.9995 15.049C31.9995 13.594 30.8515 12.415 29.4355 12.415Z" fill="white"/>
<path fill-rule="evenodd" clip-rule="evenodd" d="M18 15C22.6939 15 26.5 18.8051 26.5 23.4995C26.5 28.1934 22.6939 31.9985 18 31.9985C13.3061 31.9985 9.5 28.1934 9.5 23.4995C9.5 18.8051 13.3061 15 18 15ZM18 26.5874C17.3202 26.5874 16.8403 27.082 16.8403 27.7936C16.8251 28.4899 17.3036 29 18 29C18.7113 29 19.176 28.4899 19.176 27.7936C19.1597 27.082 18.7113 26.5874 18 26.5874ZM19.0046 18H16.9954C16.8845 18 16.7786 18.0451 16.7018 18.1249C16.6252 18.2048 16.5839 18.3126 16.5882 18.4232L16.8663 25.6292C16.875 25.8478 17.0548 26.0208 17.2735 26.0208H18.7265C18.9454 26.0208 19.1252 25.8478 19.1336 25.6292L19.4118 18.4232C19.4161 18.3126 19.3751 18.2048 19.2982 18.1249C19.2214 18.0451 19.1157 18 19.0046 18Z" fill="white"/>
</g>
<defs>
<clipPath id="clip0">
<rect width="32" height="32" fill="white"/>
</clipPath>
</defs>
</svg>
